language-python.svg

<svg fill="currentColor" viewBox="0 0 24 24"><path d="M19.14 7.5A2.86 2.86 0 0 1 22 10.36v3.78A2.86 2.86 0 0 1 19.14 17H12c0 .39.32.96.71.96H17v1.68a2.86 2.86 0 0 1-2.86 2.86H9.86A2.86 2.86 0 0 1 7 19.64v-3.75a2.85 2.85 0 0 1 2.86-2.85h5.25a2.85 2.85 0 0 0 2.85-2.86V7.5zm-4.28 11.79c-.4 0-.72.3-.72.89s.32.71.72.71a.71.71 0 0 0 .71-.71c0-.59-.32-.89-.71-.89m-10-1.79A2.86 2.86 0 0 1 2 14.64v-3.78A2.86 2.86 0 0 1 4.86 8H12c0-.39-.32-.96-.71-.96H7V5.36A2.86 2.86 0 0 1 9.86 2.5h4.28A2.86 2.86 0 0 1 17 5.36v3.75a2.85 2.85 0 0 1-2.86 2.85H8.89a2.85 2.85 0 0 0-2.85 2.86v2.68zM9.14 5.71c.4 0 .72-.3.72-.89s-.32-.71-.72-.71c-.39 0-.71.12-.71.71s.32.89.71.89"/></svg>

<svg  viewBox="0 0 24 24" fill="currentColor"><path  d="M19.14,7.5A2.86,2.86 0 0,1 22,10.36V14.14A2.86,2.86 0 0,1 19.14,17H12C12,17.39 12.32,17.96 12.71,17.96H17V19.64A2.86,2.86 0 0,1 14.14,22.5H9.86A2.86,2.86 0 0,1 7,19.64V15.89C7,14.31 8.28,13.04 9.86,13.04H15.11C16.69,13.04 17.96,11.76 17.96,10.18V7.5H19.14M14.86,19.29C14.46,19.29 14.14,19.59 14.14,20.18C14.14,20.77 14.46,20.89 14.86,20.89A0.71,0.71 0 0,0 15.57,20.18C15.57,19.59 15.25,19.29 14.86,19.29M4.86,17.5C3.28,17.5 2,16.22 2,14.64V10.86C2,9.28 3.28,8 4.86,8H12C12,7.61 11.68,7.04 11.29,7.04H7V5.36C7,3.78 8.28,2.5 9.86,2.5H14.14C15.72,2.5 17,3.78 17,5.36V9.11C17,10.69 15.72,11.96 14.14,11.96H8.89C7.31,11.96 6.04,13.24 6.04,14.82V17.5H4.86M9.14,5.71C9.54,5.71 9.86,5.41 9.86,4.82C9.86,4.23 9.54,4.11 9.14,4.11C8.75,4.11 8.43,4.23 8.43,4.82C8.43,5.41 8.75,5.71 9.14,5.71Z"/></svg>
